icon-themes/sifr_svg/cmd/sc_thesaurus.svg

<svg viewBox="0 0 16 16" xmlns="http://www.w3.org/2000/svg"><path d="m3 2c-.5522847 0-1 .4477153-1 1v11c0 .552285.4477153 1 1 1h11v-11h-1v-2h-9.9882812c-.0117188 0-.0117188 0-.0117188 0zm1 1h8v1h-8zm0 2h9v9h-9zm3 2v1h3v1h-2.5c-.828427 0-1.5.671573-1.5 1.5s.671573 1.5 1.5 1.5h3.5v-4c0-.5522847-.447715-1-1-1zm.5 3h2.5v1h-2.5c-.276142 0-.5-.223858-.5-.5s.223858-.5.5-.5z" fill="#555753"/></svg>

<svg xmlns="http://www.w3.org/2000/svg" viewBox="0 0 16 16">
  <path
     style="fill:#555753"
     d="M 3 2 C 2.4477153 2 2 2.4477153 2 3 L 2 14 C 2 14.552285 2.4477153 15 3 15 L 14 15 L 14 4 L 13 4 L 13 2 L 3.0117188 2 C 3 2 3 2 3 2 z M 4 3 L 12 3 L 12 4 L 4 4 L 4 3 z M 4 5 L 13 5 L 13 14 L 4 14 L 4 5 z M 7 7 L 7 8 L 10 8 L 10 9 L 7.5 9 C 6.671573 9 6 9.671573 6 10.5 C 6 11.328427 6.671573 12 7.5 12 L 11 12 L 11 8 C 11 7.4477153 10.552285 7 10 7 L 7 7 z M 7.5 10 L 10 10 L 10 11 L 7.5 11 C 7.223858 11 7 10.776142 7 10.5 C 7 10.223858 7.223858 10 7.5 10 z "
     />
</svg>
